X: 11
T: Music For A Found Harmonium
C: Simon Jeffes
Z: Jeff Rowan
S: https://thesession.org/tunes/346#setting50079
R: reel
M: 4/4
L: 1/8
K: Dmaj
DE|:[FA]D[GA]D [FA]DDD|[FA]D[GA]D [FA]DDD|[FA]D[GA]D [FA]DDD|EDCD [FA]DDD:|
|: EDCD EDCD|FDCD FDCD|GDED CDGD|1 FD (3DDD [DA]2 DD:|2FD (3DDD [DA]2 D=F||
K: Cmaj
|:cFEF GFEF| cFEF [EB]2 EF |cFEF GFEF| cFEF [EB]2 EF :|
K: Fmaj
BFDF GFDF|BFDF GFDF|BFEF GEzE |BFEF GEzE|
^cGEG cGzG|^cGEG cGzG|^cGEG cG (3GGG|^cGEG cG (3GGG|
K: Dmaj
|:[FA]D[GA]D [FA]DDD|[FA]D[GA]D [FA]DDD|[FA]D[GA]D [FA]DDD|EDCD [FA]DDD:|
|:EDCD EDCD|FD=CD FDCD|GDED ^CDGD|1 FD (3DDD [DA]2 DD:|2FD (3DDD [DA]2 DE||

%-------------------- TUNE SEPARATOR --------------------%

